images/50909680.svg

<?xml version="1.0" encoding="UTF-8"?>
<svg xmlns="http://www.w3.org/2000/svg" xmlns:xlink="http://www.w3.org/1999/xlink" width="300pt" height="300pt" viewBox="0 0 300 300" version="1.1">
<defs>
<g>
<symbol overflow="visible" id="glyph0-0">
<path style="stroke:none;" d="M 0.453125 1.59375 L 0.453125 -6.34375 L 4.953125 -6.34375 L 4.953125 1.59375 Z M 0.953125 1.09375 L 4.453125 1.09375 L 4.453125 -5.84375 L 0.953125 -5.84375 Z M 0.953125 1.09375 "/>
</symbol>
<symbol overflow="visible" id="glyph0-1">
<path style="stroke:none;" d="M 0.890625 -6.5625 L 4.65625 -6.5625 L 4.65625 -5.8125 L 1.765625 -5.8125 L 1.765625 -3.875 L 4.375 -3.875 L 4.375 -3.140625 L 1.765625 -3.140625 L 1.765625 0 L 0.890625 0 Z M 0.890625 -6.5625 "/>
</symbol>
<symbol overflow="visible" id="glyph0-2">
<path style="stroke:none;" d="M 3.546875 -5.953125 C 2.898438 -5.953125 2.382812 -5.710938 2 -5.234375 C 1.625 -4.753906 1.4375 -4.101562 1.4375 -3.28125 C 1.4375 -2.445312 1.625 -1.789062 2 -1.3125 C 2.382812 -0.832031 2.898438 -0.59375 3.546875 -0.59375 C 4.191406 -0.59375 4.703125 -0.832031 5.078125 -1.3125 C 5.453125 -1.789062 5.640625 -2.445312 5.640625 -3.28125 C 5.640625 -4.101562 5.453125 -4.753906 5.078125 -5.234375 C 4.703125 -5.710938 4.191406 -5.953125 3.546875 -5.953125 Z M 3.546875 -6.6875 C 4.460938 -6.6875 5.195312 -6.375 5.75 -5.75 C 6.300781 -5.132812 6.578125 -4.3125 6.578125 -3.28125 C 6.578125 -2.238281 6.300781 -1.410156 5.75 -0.796875 C 5.195312 -0.179688 4.460938 0.125 3.546875 0.125 C 2.617188 0.125 1.878906 -0.179688 1.328125 -0.796875 C 0.773438 -1.410156 0.5 -2.238281 0.5 -3.28125 C 0.5 -4.3125 0.773438 -5.132812 1.328125 -5.75 C 1.878906 -6.375 2.617188 -6.6875 3.546875 -6.6875 Z M 3.546875 -6.6875 "/>
</symbol>
<symbol overflow="visible" id="glyph0-3">
<path style="stroke:none;" d="M 0.890625 -6.5625 L 2.078125 -6.5625 L 4.984375 -1.078125 L 4.984375 -6.5625 L 5.84375 -6.5625 L 5.84375 0 L 4.65625 0 L 1.75 -5.484375 L 1.75 0 L 0.890625 0 Z M 0.890625 -6.5625 "/>
</symbol>
</g>
</defs>
<g id="surface14021">
<rect x="0" y="0" width="300" height="300" style="fill:rgb(100%,100%,100%);fill-opacity:1;stroke:none;"/>
<path style="fill:none;stroke-width:1.2;stroke-linecap:butt;stroke-linejoin:miter;stroke:rgb(20%,80%,80%);stroke-opacity:1;stroke-miterlimit:10;" d="M 107.585938 184.355469 L 99.585938 177.332031 "/>
<path style="fill:none;stroke-width:1.2;stroke-linecap:butt;stroke-linejoin:miter;stroke:rgb(0%,0%,0%);stroke-opacity:1;stroke-miterlimit:10;" d="M 99.585938 177.332031 L 91.582031 170.308594 "/>
<path style=" stroke:none;fill-rule:nonzero;fill:rgb(100%,100%,100%);fill-opacity:1;" d="M 104.585938 178.855469 L 110.585938 178.855469 L 110.585938 189.855469 L 104.585938 189.855469 Z M 104.585938 178.855469 "/>
<g style="fill:rgb(20%,80%,80%);fill-opacity:1;">
  <use xlink:href="#glyph0-1" x="104.585938" y="187.518555"/>
</g>
<path style="fill:none;stroke-width:1.2;stroke-linecap:butt;stroke-linejoin:miter;stroke:rgb(0%,0%,0%);stroke-opacity:1;stroke-miterlimit:10;" d="M 91.582031 170.308594 L 71.417969 177.140625 "/>
<path style="fill:none;stroke-width:1.2;stroke-linecap:butt;stroke-linejoin:miter;stroke:rgb(0%,0%,0%);stroke-opacity:1;stroke-miterlimit:10;" d="M 87.960938 166.246094 L 71.824219 171.714844 "/>
<path style="fill:none;stroke-width:1.2;stroke-linecap:butt;stroke-linejoin:miter;stroke:rgb(0%,0%,0%);stroke-opacity:1;stroke-miterlimit:10;" d="M 95.75 149.425781 L 91.582031 170.308594 "/>
<path style="fill:none;stroke-width:1.2;stroke-linecap:butt;stroke-linejoin:miter;stroke:rgb(0%,0%,0%);stroke-opacity:1;stroke-miterlimit:10;" d="M 71.417969 177.140625 L 55.417969 163.09375 "/>
<path style="fill:none;stroke-width:1.2;stroke-linecap:butt;stroke-linejoin:miter;stroke:rgb(0%,0%,0%);stroke-opacity:1;stroke-miterlimit:10;" d="M 55.417969 163.09375 L 45.332031 166.511719 "/>
<path style="fill:none;stroke-width:1.2;stroke-linecap:butt;stroke-linejoin:miter;stroke:rgb(20%,80%,80%);stroke-opacity:1;stroke-miterlimit:10;" d="M 45.332031 166.511719 L 35.25 169.925781 "/>
<path style="fill:none;stroke-width:1.2;stroke-linecap:butt;stroke-linejoin:miter;stroke:rgb(0%,0%,0%);stroke-opacity:1;stroke-miterlimit:10;" d="M 55.417969 163.09375 L 59.582031 142.210938 "/>
<path style="fill:none;stroke-width:1.2;stroke-linecap:butt;stroke-linejoin:miter;stroke:rgb(0%,0%,0%);stroke-opacity:1;stroke-miterlimit:10;" d="M 60.746094 161.984375 L 64.078125 145.28125 "/>
<path style=" stroke:none;fill-rule:nonzero;fill:rgb(100%,100%,100%);fill-opacity:1;" d="M 29.25 164.425781 L 35.25 164.425781 L 35.25 175.425781 L 29.25 175.425781 Z M 29.25 164.425781 "/>
<g style="fill:rgb(20%,80%,80%);fill-opacity:1;">
  <use xlink:href="#glyph0-1" x="29.25" y="173.088867"/>
</g>
<path style="fill:none;stroke-width:1.2;stroke-linecap:butt;stroke-linejoin:miter;stroke:rgb(0%,0%,0%);stroke-opacity:1;stroke-miterlimit:10;" d="M 59.582031 142.210938 L 79.75 135.378906 "/>
<path style="fill:none;stroke-width:1.2;stroke-linecap:butt;stroke-linejoin:miter;stroke:rgb(0%,0%,0%);stroke-opacity:1;stroke-miterlimit:10;" d="M 79.75 135.378906 L 95.75 149.425781 "/>
<path style="fill:none;stroke-width:1.2;stroke-linecap:butt;stroke-linejoin:miter;stroke:rgb(0%,0%,0%);stroke-opacity:1;stroke-miterlimit:10;" d="M 78.042969 140.546875 L 90.84375 151.789062 "/>
<path style="fill:none;stroke-width:1.2;stroke-linecap:butt;stroke-linejoin:miter;stroke:rgb(0%,0%,0%);stroke-opacity:1;stroke-miterlimit:10;" d="M 95.75 149.425781 L 115.914062 142.59375 "/>
<path style="fill:none;stroke-width:1.2;stroke-linecap:butt;stroke-linejoin:miter;stroke:rgb(0%,0%,0%);stroke-opacity:1;stroke-miterlimit:10;" d="M 115.914062 142.59375 L 123.914062 149.617188 "/>
<path style="fill:none;stroke-width:1.2;stroke-linecap:butt;stroke-linejoin:miter;stroke:rgb(100%,0%,0%);stroke-opacity:1;stroke-miterlimit:10;" d="M 123.914062 149.617188 L 131.917969 156.640625 "/>
<path style="fill:none;stroke-width:1.2;stroke-linecap:butt;stroke-linejoin:miter;stroke:rgb(100%,0%,0%);stroke-opacity:1;stroke-miterlimit:10;" d="M 131.917969 156.640625 L 142 153.226562 "/>
<path style="fill:none;stroke-width:1.2;stroke-linecap:butt;stroke-linejoin:miter;stroke:rgb(0%,0%,0%);stroke-opacity:1;stroke-miterlimit:10;" d="M 142 153.226562 L 152.082031 149.808594 "/>
<path style=" stroke:none;fill-rule:nonzero;fill:rgb(100%,100%,100%);fill-opacity:1;" d="M 127.917969 151.140625 L 135.917969 151.140625 L 135.917969 162.140625 L 127.917969 162.140625 Z M 127.917969 151.140625 "/>
<g style="fill:rgb(100%,0%,0%);fill-opacity:1;">
  <use xlink:href="#glyph0-2" x="127.917969" y="159.803711"/>
</g>
<path style="fill:none;stroke-width:1.2;stroke-linecap:butt;stroke-linejoin:miter;stroke:rgb(0%,0%,0%);stroke-opacity:1;stroke-miterlimit:10;" d="M 152.082031 149.808594 L 168.082031 163.855469 "/>
<path style="fill:none;stroke-width:1.2;stroke-linecap:butt;stroke-linejoin:miter;stroke:rgb(0%,0%,0%);stroke-opacity:1;stroke-miterlimit:10;" d="M 152.082031 149.808594 L 156.25 128.929688 "/>
<path style="fill:none;stroke-width:1.2;stroke-linecap:butt;stroke-linejoin:miter;stroke:rgb(0%,0%,0%);stroke-opacity:1;stroke-miterlimit:10;" d="M 157.414062 148.699219 L 160.746094 131.996094 "/>
<path style="fill:none;stroke-width:1.2;stroke-linecap:butt;stroke-linejoin:miter;stroke:rgb(0%,0%,0%);stroke-opacity:1;stroke-miterlimit:10;" d="M 168.082031 163.855469 L 188.25 157.023438 "/>
<path style="fill:none;stroke-width:1.2;stroke-linecap:butt;stroke-linejoin:miter;stroke:rgb(0%,0%,0%);stroke-opacity:1;stroke-miterlimit:10;" d="M 168.492188 158.429688 L 184.625 152.960938 "/>
<path style="fill:none;stroke-width:1.2;stroke-linecap:butt;stroke-linejoin:miter;stroke:rgb(0%,0%,0%);stroke-opacity:1;stroke-miterlimit:10;" d="M 188.25 157.023438 L 190.332031 146.582031 "/>
<path style="fill:none;stroke-width:1.2;stroke-linecap:butt;stroke-linejoin:miter;stroke:rgb(0%,0%,100%);stroke-opacity:1;stroke-miterlimit:10;" d="M 190.332031 146.582031 L 192.414062 136.144531 "/>
<path style="fill:none;stroke-width:1.2;stroke-linecap:butt;stroke-linejoin:miter;stroke:rgb(0%,0%,100%);stroke-opacity:1;stroke-miterlimit:10;" d="M 192.414062 136.144531 L 202.5 132.726562 "/>
<path style="fill:none;stroke-width:1.2;stroke-linecap:butt;stroke-linejoin:miter;stroke:rgb(0%,0%,0%);stroke-opacity:1;stroke-miterlimit:10;" d="M 202.5 132.726562 L 212.582031 129.308594 "/>
<path style="fill:none;stroke-width:1.2;stroke-linecap:butt;stroke-linejoin:miter;stroke:rgb(0%,0%,100%);stroke-opacity:1;stroke-miterlimit:10;" d="M 192.414062 136.144531 L 184.414062 129.117188 "/>
<path style="fill:none;stroke-width:1.2;stroke-linecap:butt;stroke-linejoin:miter;stroke:rgb(0%,0%,0%);stroke-opacity:1;stroke-miterlimit:10;" d="M 184.414062 129.117188 L 176.414062 122.09375 "/>
<path style=" stroke:none;fill-rule:nonzero;fill:rgb(100%,100%,100%);fill-opacity:1;" d="M 189.414062 130.644531 L 196.414062 130.644531 L 196.414062 141.644531 L 189.414062 141.644531 Z M 189.414062 130.644531 "/>
<g style="fill:rgb(0%,0%,100%);fill-opacity:1;">
  <use xlink:href="#glyph0-3" x="189.414062" y="139.307617"/>
</g>
<path style="fill:none;stroke-width:1.2;stroke-linecap:butt;stroke-linejoin:miter;stroke:rgb(0%,0%,0%);stroke-opacity:1;stroke-miterlimit:10;" d="M 212.582031 129.308594 L 228.582031 143.359375 "/>
<path style="fill:none;stroke-width:1.2;stroke-linecap:butt;stroke-linejoin:miter;stroke:rgb(0%,0%,0%);stroke-opacity:1;stroke-miterlimit:10;" d="M 228.582031 143.359375 L 224.417969 164.238281 "/>
<path style="fill:none;stroke-width:1.2;stroke-linecap:butt;stroke-linejoin:miter;stroke:rgb(0%,0%,0%);stroke-opacity:1;stroke-miterlimit:10;" d="M 233.078125 146.425781 L 229.746094 163.132812 "/>
<path style="fill:none;stroke-width:1.2;stroke-linecap:butt;stroke-linejoin:miter;stroke:rgb(0%,0%,0%);stroke-opacity:1;stroke-miterlimit:10;" d="M 248.75 136.523438 L 228.582031 143.359375 "/>
<path style="fill:none;stroke-width:1.2;stroke-linecap:butt;stroke-linejoin:miter;stroke:rgb(0%,0%,0%);stroke-opacity:1;stroke-miterlimit:10;" d="M 224.417969 164.238281 L 240.417969 178.285156 "/>
<path style="fill:none;stroke-width:1.2;stroke-linecap:butt;stroke-linejoin:miter;stroke:rgb(0%,0%,0%);stroke-opacity:1;stroke-miterlimit:10;" d="M 240.417969 178.285156 L 238.335938 188.726562 "/>
<path style="fill:none;stroke-width:1.2;stroke-linecap:butt;stroke-linejoin:miter;stroke:rgb(20%,80%,80%);stroke-opacity:1;stroke-miterlimit:10;" d="M 238.335938 188.726562 L 236.253906 199.167969 "/>
<path style="fill:none;stroke-width:1.2;stroke-linecap:butt;stroke-linejoin:miter;stroke:rgb(0%,0%,0%);stroke-opacity:1;stroke-miterlimit:10;" d="M 240.417969 178.285156 L 260.585938 171.453125 "/>
<path style="fill:none;stroke-width:1.2;stroke-linecap:butt;stroke-linejoin:miter;stroke:rgb(0%,0%,0%);stroke-opacity:1;stroke-miterlimit:10;" d="M 240.828125 172.859375 L 256.960938 167.390625 "/>
<path style=" stroke:none;fill-rule:nonzero;fill:rgb(100%,100%,100%);fill-opacity:1;" d="M 233.253906 193.667969 L 239.253906 193.667969 L 239.253906 204.667969 L 233.253906 204.667969 Z M 233.253906 193.667969 "/>
<g style="fill:rgb(20%,80%,80%);fill-opacity:1;">
  <use xlink:href="#glyph0-1" x="233.253906" y="202.331055"/>
</g>
<path style="fill:none;stroke-width:1.2;stroke-linecap:butt;stroke-linejoin:miter;stroke:rgb(0%,0%,0%);stroke-opacity:1;stroke-miterlimit:10;" d="M 260.585938 171.453125 L 264.75 150.574219 "/>
<path style="fill:none;stroke-width:1.2;stroke-linecap:butt;stroke-linejoin:miter;stroke:rgb(0%,0%,0%);stroke-opacity:1;stroke-miterlimit:10;" d="M 264.75 150.574219 L 248.75 136.523438 "/>
<path style="fill:none;stroke-width:1.2;stroke-linecap:butt;stroke-linejoin:miter;stroke:rgb(0%,0%,0%);stroke-opacity:1;stroke-miterlimit:10;" d="M 259.84375 152.933594 L 247.042969 141.695312 "/>
<path style="fill:none;stroke-width:1.2;stroke-linecap:butt;stroke-linejoin:miter;stroke:rgb(0%,0%,0%);stroke-opacity:1;stroke-miterlimit:10;" d="M 178.871094 122.585938 L 180.953125 112.144531 "/>
<path style="fill:none;stroke-width:1.2;stroke-linecap:butt;stroke-linejoin:miter;stroke:rgb(100%,0%,0%);stroke-opacity:1;stroke-miterlimit:10;" d="M 180.953125 112.144531 L 183.035156 101.703125 "/>
<path style="fill:none;stroke-width:1.2;stroke-linecap:butt;stroke-linejoin:miter;stroke:rgb(0%,0%,0%);stroke-opacity:1;stroke-miterlimit:10;" d="M 173.957031 121.605469 L 176.039062 111.164062 "/>
<path style="fill:none;stroke-width:1.2;stroke-linecap:butt;stroke-linejoin:miter;stroke:rgb(100%,0%,0%);stroke-opacity:1;stroke-miterlimit:10;" d="M 176.039062 111.164062 L 178.125 100.722656 "/>
<path style="fill:none;stroke-width:1.2;stroke-linecap:butt;stroke-linejoin:miter;stroke:rgb(0%,0%,0%);stroke-opacity:1;stroke-miterlimit:10;" d="M 176.414062 122.09375 L 156.25 128.929688 "/>
<path style=" stroke:none;fill-rule:nonzero;fill:rgb(100%,100%,100%);fill-opacity:1;" d="M 176.582031 95.714844 L 184.582031 95.714844 L 184.582031 106.714844 L 176.582031 106.714844 Z M 176.582031 95.714844 "/>
<g style="fill:rgb(100%,0%,0%);fill-opacity:1;">
  <use xlink:href="#glyph0-2" x="176.582031" y="104.37793"/>
</g>
<path style="fill:none;stroke-width:1.2;stroke-linecap:butt;stroke-linejoin:miter;stroke:rgb(0%,0%,0%);stroke-opacity:1;stroke-miterlimit:10;" d="M 156.25 128.929688 L 140.246094 114.878906 "/>
<path style="fill:none;stroke-width:1.2;stroke-linecap:butt;stroke-linejoin:miter;stroke:rgb(0%,0%,0%);stroke-opacity:1;stroke-miterlimit:10;" d="M 140.246094 114.878906 L 132.246094 107.855469 "/>
<path style="fill:none;stroke-width:1.2;stroke-linecap:butt;stroke-linejoin:miter;stroke:rgb(0%,0%,100%);stroke-opacity:1;stroke-miterlimit:10;" d="M 132.246094 107.855469 L 124.246094 100.832031 "/>
<path style="fill:none;stroke-width:1.2;stroke-linecap:butt;stroke-linejoin:miter;stroke:rgb(0%,0%,0%);stroke-opacity:1;stroke-miterlimit:10;" d="M 141.953125 109.710938 L 135.550781 104.089844 "/>
<path style="fill:none;stroke-width:1.2;stroke-linecap:butt;stroke-linejoin:miter;stroke:rgb(0%,0%,100%);stroke-opacity:1;stroke-miterlimit:10;" d="M 135.550781 104.089844 L 129.152344 98.472656 "/>
<path style="fill:none;stroke-width:1.2;stroke-linecap:butt;stroke-linejoin:miter;stroke:rgb(0%,0%,0%);stroke-opacity:1;stroke-miterlimit:10;" d="M 135.34375 117.238281 L 128.941406 111.621094 "/>
<path style="fill:none;stroke-width:1.2;stroke-linecap:butt;stroke-linejoin:miter;stroke:rgb(0%,0%,100%);stroke-opacity:1;stroke-miterlimit:10;" d="M 128.941406 111.621094 L 122.542969 106 "/>
<path style=" stroke:none;fill-rule:nonzero;fill:rgb(100%,100%,100%);fill-opacity:1;" d="M 117.246094 95.332031 L 124.246094 95.332031 L 124.246094 106.332031 L 117.246094 106.332031 Z M 117.246094 95.332031 "/>
<g style="fill:rgb(0%,0%,100%);fill-opacity:1;">
  <use xlink:href="#glyph0-3" x="117.246094" y="103.995117"/>
</g>
</g>
</svg>

<svg xmlns="http://www.w3.org/2000/svg" xmlns:xlink="http://www.w3.org/1999/xlink" width="300pt" height="300pt" viewBox="0 0 300 300"><defs><symbol overflow="visible"><path d="M.453 1.594v-7.938h4.5v7.938zm.5-.5h3.5v-6.938h-3.5zm0 0"/></symbol><symbol overflow="visible" id="a"><path d="M.89-6.563h3.766v.75h-2.89v1.938h2.61v.734h-2.61V0H.89zm0 0"/></symbol><symbol overflow="visible" id="b"><path d="M3.547-5.953c-.65 0-1.164.242-1.547.72-.375.48-.563 1.13-.563 1.952 0 .835.188 1.49.563 1.967.383.48.898.72 1.547.72.644 0 1.156-.24 1.53-.72.376-.476.564-1.132.564-1.968 0-.822-.187-1.474-.562-1.954-.375-.477-.887-.72-1.53-.72zm0-.734c.914 0 1.648.312 2.203.937.55.617.828 1.438.828 2.47 0 1.042-.277 1.87-.828 2.483-.555.617-1.29.922-2.203.922-.93 0-1.668-.305-2.22-.922C.774-1.41.5-2.237.5-3.28c0-1.033.273-1.853.828-2.47.55-.625 1.29-.938 2.22-.938zm0 0"/></symbol><symbol overflow="visible" id="c"><path d="M.89-6.563H2.08l2.906 5.485v-5.484h.86V0H4.656L1.75-5.484V0H.89zm0 0"/></symbol></defs><g><path fill="#fff" d="M0 0h300v300H0z"/><path d="M107.586 184.355l-8-7.023" stroke-width="1.2" stroke="#3cc" stroke-miterlimit="10" fill="none"/><path d="M99.586 177.332l-8.004-7.023" stroke-width="1.2" stroke="#000" stroke-miterlimit="10" fill="none"/><path d="M104.586 178.855h6v11h-6zm0 0" fill="#fff"/><use xlink:href="#a" x="104.586" y="187.519" fill="#3cc"/><path d="M91.582 170.31l-20.164 6.83M87.96 166.246l-16.136 5.47M95.75 149.426l-4.168 20.883M71.418 177.14l-16-14.046M55.418 163.094l-10.086 3.418" stroke-width="1.2" stroke="#000" stroke-miterlimit="10" fill="none"/><path d="M45.332 166.512l-10.082 3.414" stroke-width="1.2" stroke="#3cc" stroke-miterlimit="10" fill="none"/><path d="M55.418 163.094l4.164-20.883M60.746 161.984l3.332-16.703" stroke-width="1.2" stroke="#000" stroke-miterlimit="10" fill="none"/><path d="M29.25 164.426h6v11h-6zm0 0" fill="#fff"/><use xlink:href="#a" x="29.25" y="173.089" fill="#3cc"/><path d="M59.582 142.21l20.168-6.83M79.75 135.38l16 14.046M78.043 140.547l12.8 11.242M95.75 149.426l20.164-6.832M115.914 142.594l8 7.023" stroke-width="1.2" stroke="#000" stroke-miterlimit="10" fill="none"/><path d="M123.914 149.617l8.004 7.024M131.918 156.64L142 153.228" stroke-width="1.2" stroke="#f00" stroke-miterlimit="10" fill="none"/><path d="M142 153.227l10.082-3.418" stroke-width="1.2" stroke="#000" stroke-miterlimit="10" fill="none"/><path d="M127.918 151.14h8v11h-8zm0 0" fill="#fff"/><use xlink:href="#b" x="127.918" y="159.804" fill="#f00"/><path d="M152.082 149.81l16 14.045M152.082 149.81l4.168-20.88M157.414 148.7l3.332-16.704M168.082 163.855l20.168-6.832M168.492 158.43l16.133-5.47M188.25 157.023l2.082-10.44" stroke-width="1.2" stroke="#000" stroke-miterlimit="10" fill="none"/><path d="M190.332 146.582l2.082-10.437M192.414 136.145l10.086-3.418" stroke-width="1.2" stroke="#00f" stroke-miterlimit="10" fill="none"/><path d="M202.5 132.727l10.082-3.418" stroke-width="1.2" stroke="#000" stroke-miterlimit="10" fill="none"/><path d="M192.414 136.145l-8-7.028" stroke-width="1.2" stroke="#00f" stroke-miterlimit="10" fill="none"/><path d="M184.414 129.117l-8-7.023" stroke-width="1.2" stroke="#000" stroke-miterlimit="10" fill="none"/><path d="M189.414 130.645h7v11h-7zm0 0" fill="#fff"/><use xlink:href="#c" x="189.414" y="139.308" fill="#00f"/><path d="M212.582 129.31l16 14.05M228.582 143.36l-4.164 20.878M233.078 146.426l-3.332 16.707M248.75 136.523l-20.168 6.836M224.418 164.238l16 14.047M240.418 178.285l-2.082 10.442" stroke-width="1.2" stroke="#000" stroke-miterlimit="10" fill="none"/><path d="M238.336 188.727l-2.082 10.44" stroke-width="1.2" stroke="#3cc" stroke-miterlimit="10" fill="none"/><path d="M240.418 178.285l20.168-6.832M240.828 172.86l16.133-5.47" stroke-width="1.2" stroke="#000" stroke-miterlimit="10" fill="none"/><path d="M233.254 193.668h6v11h-6zm0 0" fill="#fff"/><use xlink:href="#a" x="233.254" y="202.331" fill="#3cc"/><path d="M260.586 171.453l4.164-20.88M264.75 150.574l-16-14.05M259.844 152.934l-12.8-11.24M178.87 122.586l2.083-10.44" stroke-width="1.2" stroke="#000" stroke-miterlimit="10" fill="none"/><path d="M180.953 112.145l2.082-10.442" stroke-width="1.2" stroke="#f00" stroke-miterlimit="10" fill="none"/><path d="M173.957 121.605l2.082-10.44" stroke-width="1.2" stroke="#000" stroke-miterlimit="10" fill="none"/><path d="M176.04 111.164l2.085-10.44" stroke-width="1.2" stroke="#f00" stroke-miterlimit="10" fill="none"/><path d="M176.414 122.094l-20.164 6.836" stroke-width="1.2" stroke="#000" stroke-miterlimit="10" fill="none"/><path d="M176.582 95.715h8v11h-8zm0 0" fill="#fff"/><use xlink:href="#b" x="176.582" y="104.378" fill="#f00"/><path d="M156.25 128.93l-16.004-14.05M140.246 114.88l-8-7.025" stroke-width="1.2" stroke="#000" stroke-miterlimit="10" fill="none"/><path d="M132.246 107.855l-8-7.023" stroke-width="1.2" stroke="#00f" stroke-miterlimit="10" fill="none"/><path d="M141.953 109.71l-6.402-5.62" stroke-width="1.2" stroke="#000" stroke-miterlimit="10" fill="none"/><path d="M135.55 104.09l-6.398-5.617" stroke-width="1.2" stroke="#00f" stroke-miterlimit="10" fill="none"/><path d="M135.344 117.238l-6.403-5.617" stroke-width="1.2" stroke="#000" stroke-miterlimit="10" fill="none"/><path d="M128.94 111.62l-6.397-5.62" stroke-width="1.2" stroke="#00f" stroke-miterlimit="10" fill="none"/><path d="M117.246 95.332h7v11h-7zm0 0" fill="#fff"/><use xlink:href="#c" x="117.246" y="103.995" fill="#00f"/></g></svg>
